X: 30493
T: DUNCAN'S REEL
C:
%R: reel
B: Elias Howe "The Musician's Companion" Part 3 1844 p.49 #3
S: http://imslp.org/wiki/The_Musician's_Companion_(Howe,_Elias)
S: https://archive.org/stream/firstthirdpartof03howe/#page/66/mode/1up
Z: 2015 John Chambers <jc:trillian.mit.edu>
N: The 1st strain has 7.5 bars, with the 2nd bar long.
M: 2/4
L: 1/16
K: G
% - - - - - - - - - - - - - - - - - - - - - - - - -
Bc |\
dBGB dBge | dBGB dBgd bgdB | dcBc A2Bc |\
dBGB dBge | dBGB dBge | dBge dBcA | G2[g2G2]"^FINE"[g2G2] :|
|: (fg) |\
afdf afbg | a(fdf) afbg | fad'^c' bagf | agfg e2fg |\
afdf afbg | afdf afd'c' | afge fde^c | d^dec BA"^D.C."Bc :|
% - - - - - - - - - - - - - - - - - - - - - - - - -
